img/logo/evo.svg

<svg width="235" height="235" viewBox="0 0 235 235" fill="none" xmlns="http://www.w3.org/2000/svg">
<g clip-path="url(#clip0)">
<path d="M119.347 234.822C184.187 233.758 235.888 180.332 234.825 115.492C233.761 50.651 180.335 -1.05025 115.494 0.0136242C50.6535 1.0775 -1.04771 54.5036 0.016161 119.344C1.08004 184.185 54.5061 235.886 119.347 234.822Z" fill="#3D5AFE"/>
<path d="M80.5398 74.3701V80.9701H61.9998V107.3H80.5398V113.84H54.0898V74.3701H80.5398ZM75.8498 98.1101H67.0598L63.3898 90.7801H75.8498V98.1101Z" fill="#FFD600"/>
<path d="M162.178 73.8599C164.87 73.8326 167.536 74.3816 169.998 75.4699C172.356 76.4921 174.49 77.9697 176.276 79.8178C178.062 81.6659 179.466 83.8482 180.408 86.2399C181.413 88.741 181.919 91.4145 181.898 94.1099C181.907 96.4061 181.546 98.6887 180.828 100.87C179.448 105.069 176.688 108.678 172.998 111.11C171.169 112.331 169.137 113.218 166.998 113.73L163.078 107C164.591 106.9 166.063 106.467 167.388 105.73C168.676 105.01 169.816 104.053 170.748 102.91C171.708 101.716 172.449 100.362 172.938 98.9099C173.47 97.359 173.737 95.7295 173.728 94.0898C173.735 92.3849 173.441 90.6921 172.858 89.0898C172.319 87.5803 171.505 86.1835 170.458 84.9699C169.452 83.8081 168.216 82.8682 166.828 82.2099C165.366 81.5441 163.779 81.1996 162.173 81.1996C160.567 81.1996 158.98 81.5441 157.518 82.2099C156.123 82.8842 154.878 83.8331 153.858 84.9999C152.802 86.2123 151.978 87.6089 151.428 89.1199C150.275 92.3535 150.275 95.8862 151.428 99.1199C151.976 100.632 152.8 102.029 153.858 103.24C154.878 104.399 156.123 105.338 157.518 106C158.975 106.682 160.569 107.024 162.178 107V114.33C159.503 114.351 156.853 113.813 154.398 112.75C152.042 111.732 149.91 110.257 148.128 108.41C146.359 106.553 144.958 104.378 143.998 102C142.011 96.9448 142.011 91.3249 143.998 86.2698C144.935 83.8736 146.336 81.686 148.121 79.8327C149.906 77.9793 152.039 76.4967 154.398 75.4699C156.848 74.3874 159.5 73.8386 162.178 73.8599V73.8599Z" fill="#FFD600"/>
<path d="M82.928 153.22C82.2016 154.37 81.3386 155.428 80.358 156.37C79.3675 157.309 78.27 158.128 77.088 158.81C75.886 159.5 74.5983 160.028 73.258 160.38C70.8349 161.037 68.2929 161.126 65.8298 160.64C63.3667 160.154 61.0489 159.107 59.0567 157.579C57.0645 156.051 55.4516 154.084 54.3435 151.832C53.2355 149.579 52.6621 147.101 52.668 144.59C52.6618 142.439 53.0799 140.309 53.8984 138.32C54.7169 136.331 55.9198 134.523 57.438 133C58.9324 131.513 60.6975 130.325 62.638 129.5C64.6514 128.657 66.8152 128.231 68.998 128.25C70.432 128.247 71.8605 128.428 73.248 128.79C74.5886 129.146 75.8764 129.677 77.078 130.37C78.262 131.049 79.3599 131.868 80.348 132.81C81.3394 133.76 82.2064 134.832 82.928 136L77.588 139.42C76.7773 137.826 75.5682 136.469 74.078 135.48C72.5713 134.489 70.8014 133.973 68.998 134C67.6866 133.992 66.3906 134.283 65.208 134.85C64.0368 135.402 62.984 136.177 62.108 137.13C61.2044 138.117 60.4922 139.263 60.008 140.51C59.2382 142.453 59.0269 144.573 59.3979 146.63C59.769 148.686 60.7077 150.599 62.108 152.15C62.984 153.104 64.0368 153.878 65.208 154.43C66.3929 154.989 67.6879 155.276 68.998 155.27C70.798 155.295 72.5641 154.779 74.068 153.79C75.5676 152.787 76.7778 151.407 77.578 149.79L82.928 153.22Z" fill="black"/>
<path d="M108.129 128.2C110.298 128.181 112.445 128.624 114.429 129.5C116.329 130.329 118.051 131.517 119.499 133C120.946 134.497 122.085 136.263 122.849 138.2C123.664 140.224 124.075 142.388 124.059 144.57C124.067 146.431 123.776 148.281 123.199 150.05C122.638 151.741 121.803 153.328 120.729 154.75C119.667 156.146 118.379 157.356 116.919 158.33C115.439 159.322 113.793 160.04 112.059 160.45L108.859 155.02C110.083 154.953 111.276 154.611 112.349 154.02C113.39 153.431 114.312 152.655 115.069 151.73C115.848 150.763 116.451 149.666 116.849 148.49C117.735 145.893 117.711 143.071 116.779 140.49C116.341 139.268 115.683 138.136 114.839 137.15C114.016 136.24 113.016 135.509 111.899 135C110.718 134.459 109.434 134.179 108.134 134.179C106.835 134.179 105.551 134.459 104.369 135C103.226 135.527 102.204 136.286 101.369 137.23C100.498 138.207 99.8192 139.34 99.3694 140.57C98.4258 143.194 98.4258 146.065 99.3694 148.69C99.817 149.917 100.496 151.048 101.369 152.02C102.203 152.966 103.225 153.729 104.369 154.26C105.544 154.816 106.83 155.096 108.129 155.08V161C106.007 161.015 103.905 160.596 101.95 159.771C99.995 158.946 98.2288 157.731 96.7594 156.2C95.3218 154.696 94.1848 152.931 93.4094 151C91.7958 146.906 91.7958 142.353 93.4094 138.26C94.9526 134.354 97.9801 131.219 101.829 129.54C103.81 128.651 105.958 128.194 108.129 128.2V128.2Z" fill="black"/>
<path d="M142.6 128.61V160.56H135.93V128.61H142.6Z" fill="black"/>
<path d="M161.578 128.61L182.168 158.28V160.56H175.508L161.578 140.48V160.56H154.918V128.61H161.578ZM175.508 128.61H182.168V152.53L175.508 147.74V128.61Z" fill="black"/>
<path d="M125.018 74.3701L113.218 103.26L104.428 82.2801L99.3281 90.6601L108.888 113.84H117.348L133.528 74.3701H125.018Z" fill="#FFD600"/>
<path d="M104.062 81.4001L101.112 74.3701H92.6016L97.2216 85.5601L104.062 81.4001Z" fill="#F1D23E"/>
</g>
<defs>
<clipPath id="clip0">
<rect width="234.84" height="234.84" fill="white"/>
</clipPath>
</defs>
</svg>

<svg xmlns="http://www.w3.org/2000/svg" viewBox="0 0 234.84 234.84"><defs><style>.cls-1{fill:#4d60a8;}.cls-2{fill:#f5d030;}.cls-3{fill:#262424;}</style></defs><title>Asset 1</title><g id="Layer_2" data-name="Layer 2"><g id="Layer_1-2" data-name="Layer 1"><circle class="cls-1" cx="117.42" cy="117.42" r="117.42" transform="translate(-1.91 1.94) rotate(-0.94)"/><path class="cls-2" d="M80.54,74.37l0,6.6H62L62,107.3H80.54v6.54H54.09V74.37ZM75.85,98.11H67.06l-3.67-7.33H75.85Z"/><path class="cls-2" d="M162.18,73.86A18.87,18.87,0,0,1,170,75.47a19.54,19.54,0,0,1,10.41,10.77,20.68,20.68,0,0,1,1.49,7.87,21.36,21.36,0,0,1-1.07,6.76A19.59,19.59,0,0,1,173,111.11a18.6,18.6,0,0,1-6,2.62L163.08,107a10.25,10.25,0,0,0,4.31-1.27,11.7,11.7,0,0,0,3.36-2.82,13,13,0,0,0,2.19-4,14.59,14.59,0,0,0,.79-4.82,14.44,14.44,0,0,0-.87-5,13,13,0,0,0-2.4-4.12,11.08,11.08,0,0,0-3.63-2.76,11.23,11.23,0,0,0-9.31,0A11.52,11.52,0,0,0,153.86,85a13.09,13.09,0,0,0-2.43,4.12,14.89,14.89,0,0,0,0,10,13,13,0,0,0,2.43,4.12,11.38,11.38,0,0,0,3.66,2.76,10.61,10.61,0,0,0,4.66,1v7.33a19.19,19.19,0,0,1-7.78-1.58,19.41,19.41,0,0,1-6.27-4.34A20.32,20.32,0,0,1,144,102a21.5,21.5,0,0,1,0-15.73A19.54,19.54,0,0,1,154.4,75.47,18.88,18.88,0,0,1,162.18,73.86Z"/><path class="cls-3" d="M82.93,153.22a16.86,16.86,0,0,1-2.57,3.15,17.4,17.4,0,0,1-3.27,2.44,15.74,15.74,0,0,1-3.83,1.57,16.32,16.32,0,0,1-20.59-15.79A16.35,16.35,0,0,1,57.44,133a16.54,16.54,0,0,1,5.2-3.5A16.1,16.1,0,0,1,69,128.25a16.67,16.67,0,0,1,4.25.54,15.77,15.77,0,0,1,3.83,1.58,17,17,0,0,1,3.27,2.44A16.24,16.24,0,0,1,82.93,136l-5.34,3.42a10.37,10.37,0,0,0-3.51-3.94A9,9,0,0,0,69,134a8.65,8.65,0,0,0-3.79.85,10,10,0,0,0-3.1,2.28,10.78,10.78,0,0,0-2.1,3.38,11.21,11.21,0,0,0,2.1,11.64,10,10,0,0,0,3.1,2.28,8.78,8.78,0,0,0,3.79.84,9,9,0,0,0,5.07-1.48,10.32,10.32,0,0,0,3.51-4Z"/><path class="cls-3" d="M108.13,128.2a15.28,15.28,0,0,1,6.3,1.3A16.07,16.07,0,0,1,119.5,133a15.87,15.87,0,0,1,3.35,5.2,16.75,16.75,0,0,1,1.21,6.37,17.46,17.46,0,0,1-.86,5.48,16.35,16.35,0,0,1-2.47,4.7,15.83,15.83,0,0,1-3.81,3.58,14.89,14.89,0,0,1-4.86,2.12l-3.2-5.43a8.15,8.15,0,0,0,3.49-1,9.68,9.68,0,0,0,2.72-2.29,10.58,10.58,0,0,0,1.78-3.24,12.08,12.08,0,0,0-.07-8,10.7,10.7,0,0,0-1.94-3.34A9,9,0,0,0,111.9,135a9.05,9.05,0,0,0-7.53,0,9.08,9.08,0,0,0-3,2.23,10.37,10.37,0,0,0-2,3.34,12,12,0,0,0,0,8.12,10.22,10.22,0,0,0,2,3.33,9.1,9.1,0,0,0,3,2.24,8.53,8.53,0,0,0,3.76.82V161a15.61,15.61,0,0,1-11.37-4.8A16.34,16.34,0,0,1,93.41,151a17.37,17.37,0,0,1,0-12.74,15.88,15.88,0,0,1,8.42-8.72A15.28,15.28,0,0,1,108.13,128.2Z"/><path class="cls-3" d="M142.6,128.61v31.95h-6.67V128.61Z"/><path class="cls-3" d="M161.58,128.61l20.59,29.67v2.28h-6.66l-13.93-20.08v20.08h-6.66V128.61Zm13.93,0h6.66v23.92l-6.66-4.79Z"/><polygon class="cls-2" points="125.02 74.37 113.22 103.26 104.43 82.28 99.33 90.66 108.89 113.84 117.35 113.84 133.53 74.37 125.02 74.37"/><polygon class="cls-2" points="104.06 81.4 101.11 74.37 92.6 74.37 97.22 85.56 104.06 81.4"/></g></g></svg>
